public/assets/imgs/Frame-2.svg

<svg width="1512" height="574" viewBox="0 0 1512 574" fill="none" xmlns="http://www.w3.org/2000/svg">
<path d="M678.213 1.11499L377.834 573.019" stroke="#343839" stroke-width="0.55747" stroke-linecap="round" stroke-linejoin="round"/>
<path d="M445.258 1.11523L0.00170898 213.326" stroke="#343839" stroke-width="0.55747" stroke-linecap="round" stroke-linejoin="round"/>
<path d="M367.604 1.11523L0.00170898 141.29" stroke="#343839" stroke-width="0.55747" stroke-linecap="round" stroke-linejoin="round"/>
<path d="M289.958 1.11499L0.00012207 93.258" stroke="#343839" stroke-width="0.55747" stroke-linecap="round" stroke-linejoin="round"/>
<path d="M522.913 1.11523L0.000610352 333.363" stroke="#343839" stroke-width="0.55747" stroke-linecap="round" stroke-linejoin="round"/>
<path d="M212.304 1.11499L0.00012207 58.9447" stroke="#343839" stroke-width="0.55747" stroke-linecap="round" stroke-linejoin="round"/>
<path d="M56.996 1.11499L0 13.192" stroke="#343839" stroke-width="0.55747" stroke-linecap="round" stroke-linejoin="round"/>
<path d="M134.65 1.11499L0 33.2074" stroke="#343839" stroke-width="0.55747" stroke-linecap="round" stroke-linejoin="round"/>
<path d="M1299.43 1.11499L1512 59.0495" stroke="#343839" stroke-width="0.55747" stroke-linecap="round" stroke-linejoin="round"/>
<path d="M755.867 1.11499L755.347 573.019" stroke="#343839" stroke-width="0.55747" stroke-linecap="round" stroke-linejoin="round"/>
<path d="M1377.09 1.11499L1512 33.2832" stroke="#343839" stroke-width="0.55747" stroke-linecap="round" stroke-linejoin="round"/>
<path d="M1454.73 1.11499L1512 13.2522" stroke="#343839" stroke-width="0.55747" stroke-linecap="round" stroke-linejoin="round"/>
<path d="M1221.78 1.11499L1512 93.3985" stroke="#343839" stroke-width="0.55747" stroke-linecap="round" stroke-linejoin="round"/>
<path d="M1144.12 1.11499L1512 141.484" stroke="#343839" stroke-width="0.55747" stroke-linecap="round" stroke-linejoin="round"/>
<path d="M988.822 1.11499L1512 333.915" stroke="#343839" stroke-width="0.55747" stroke-linecap="round" stroke-linejoin="round"/>
<path d="M1066.48 1.11499L1512 213.638" stroke="#343839" stroke-width="0.55747" stroke-linecap="round" stroke-linejoin="round"/>
<path d="M833.521 1.11499L1132.87 573.019" stroke="#343839" stroke-width="0.55747" stroke-linecap="round" stroke-linejoin="round"/>
<path d="M600.559 1.11499L0.322449 573.019" stroke="#343839" stroke-width="0.55747" stroke-linecap="round" stroke-linejoin="round"/>
<path d="M911.168 1.11499L1510.38 573.019" stroke="#343839" stroke-width="0.55747" stroke-linecap="round" stroke-linejoin="round"/>
<path d="M1512 79.164H0.00189209" stroke="#343839" stroke-width="0.55747" stroke-linecap="round" stroke-linejoin="round"/>
<path d="M1512 26.8239H0.00189209" stroke="#343839" stroke-width="0.55747" stroke-linecap="round" stroke-linejoin="round"/>
<path d="M1512 37.4953H0.00189209" stroke="#343839" stroke-width="0.55747" stroke-linecap="round" stroke-linejoin="round"/>
<path d="M1512 49.5648H0.00189209" stroke="#343839" stroke-width="0.55747" stroke-linecap="round" stroke-linejoin="round"/>
<path d="M1512 8.79756H0.00189209" stroke="#343839" stroke-width="0.55747" stroke-linecap="round" stroke-linejoin="round"/>
<path d="M1512 17.3187H0.00189209" stroke="#343839" stroke-width="0.55747" stroke-linecap="round" stroke-linejoin="round"/>
<path d="M1512 421.622H0.00189209" stroke="#343839" stroke-width="0.55747" stroke-linecap="round" stroke-linejoin="round"/>
<path d="M1512 97.5747H0.00189209" stroke="#343839" stroke-width="0.55747" stroke-linecap="round" stroke-linejoin="round"/>
<path d="M1512 63.3305H0.00189209" stroke="#343839" stroke-width="0.55747" stroke-linecap="round" stroke-linejoin="round"/>
<path d="M1512 1.11494H0.00164795" stroke="#343839" stroke-width="0.55747" stroke-linecap="round" stroke-linejoin="round"/>
<path d="M1512 119.246H0.00189209" stroke="#343839" stroke-width="0.55747" stroke-linecap="round" stroke-linejoin="round"/>
<path d="M1512 145.137H0.00189209" stroke="#343839" stroke-width="0.55747" stroke-linecap="round" stroke-linejoin="round"/>
<path d="M1512 331.121H0.00189209" stroke="#343839" stroke-width="0.55747" stroke-linecap="round" stroke-linejoin="round"/>
<path d="M1512 176.608H0.00189209" stroke="#343839" stroke-width="0.55747" stroke-linecap="round" stroke-linejoin="round"/>
<path d="M1512 215.678H0.00189209" stroke="#343839" stroke-width="0.55747" stroke-linecap="round" stroke-linejoin="round"/>
<path d="M1512 265.475H0.00189209" stroke="#343839" stroke-width="0.55747" stroke-linecap="round" stroke-linejoin="round"/>
</svg>

<?xml version="1.0" encoding="UTF-8"?>
<svg width="1512" height="574" viewBox="0 0 1512 574" fill="none" xmlns="http://www.w3.org/2000/svg">
<path d="m678.21 1.115-300.38 571.9" stroke="#343839" stroke-linecap="round" stroke-linejoin="round" stroke-width=".55747"/>
<path d="m445.26 1.1152-445.26 212.21" stroke="#343839" stroke-linecap="round" stroke-linejoin="round" stroke-width=".55747"/>
<path d="m367.6 1.1152-367.6 140.17" stroke="#343839" stroke-linecap="round" stroke-linejoin="round" stroke-width=".55747"/>
<path d="m289.96 1.115-289.96 92.143" stroke="#343839" stroke-linecap="round" stroke-linejoin="round" stroke-width=".55747"/>
<path d="m522.91 1.1152-522.91 332.25" stroke="#343839" stroke-linecap="round" stroke-linejoin="round" stroke-width=".55747"/>
<path d="m212.3 1.115-212.3 57.83" stroke="#343839" stroke-linecap="round" stroke-linejoin="round" stroke-width=".55747"/>
<path d="M56.996 1.11499L0 13.192" stroke="#343839" stroke-linecap="round" stroke-linejoin="round" stroke-width=".55747"/>
<path d="M134.65 1.11499L0 33.2074" stroke="#343839" stroke-linecap="round" stroke-linejoin="round" stroke-width=".55747"/>
<path d="m1299.4 1.115 212.57 57.935" stroke="#343839" stroke-linecap="round" stroke-linejoin="round" stroke-width=".55747"/>
<path d="m755.87 1.115-0.52 571.9" stroke="#343839" stroke-linecap="round" stroke-linejoin="round" stroke-width=".55747"/>
<path d="m1377.1 1.115 134.91 32.168" stroke="#343839" stroke-linecap="round" stroke-linejoin="round" stroke-width=".55747"/>
<path d="m1454.7 1.115 57.27 12.137" stroke="#343839" stroke-linecap="round" stroke-linejoin="round" stroke-width=".55747"/>
<path d="m1221.8 1.115 290.22 92.284" stroke="#343839" stroke-linecap="round" stroke-linejoin="round" stroke-width=".55747"/>
<path d="m1144.1 1.115 367.88 140.37" stroke="#343839" stroke-linecap="round" stroke-linejoin="round" stroke-width=".55747"/>
<path d="m988.82 1.115 523.18 332.8" stroke="#343839" stroke-linecap="round" stroke-linejoin="round" stroke-width=".55747"/>
<path d="m1066.5 1.115 445.52 212.52" stroke="#343839" stroke-linecap="round" stroke-linejoin="round" stroke-width=".55747"/>
<path d="m833.52 1.115 299.35 571.9" stroke="#343839" stroke-linecap="round" stroke-linejoin="round" stroke-width=".55747"/>
<path d="m600.56 1.115-600.24 571.9" stroke="#343839" stroke-linecap="round" stroke-linejoin="round" stroke-width=".55747"/>
<path d="m911.17 1.115 599.21 571.9" stroke="#343839" stroke-linecap="round" stroke-linejoin="round" stroke-width=".55747"/>
<path d="m1512 79.164h-1512" stroke="#343839" stroke-linecap="round" stroke-linejoin="round" stroke-width=".55747"/>
<path d="m1512 26.824h-1512" stroke="#343839" stroke-linecap="round" stroke-linejoin="round" stroke-width=".55747"/>
<path d="m1512 37.495h-1512" stroke="#343839" stroke-linecap="round" stroke-linejoin="round" stroke-width=".55747"/>
<path d="m1512 49.565h-1512" stroke="#343839" stroke-linecap="round" stroke-linejoin="round" stroke-width=".55747"/>
<path d="m1512 8.7976h-1512" stroke="#343839" stroke-linecap="round" stroke-linejoin="round" stroke-width=".55747"/>
<path d="m1512 17.319h-1512" stroke="#343839" stroke-linecap="round" stroke-linejoin="round" stroke-width=".55747"/>
<path d="m1512 421.62h-1512" stroke="#343839" stroke-linecap="round" stroke-linejoin="round" stroke-width=".55747"/>
<path d="m1512 97.575h-1512" stroke="#343839" stroke-linecap="round" stroke-linejoin="round" stroke-width=".55747"/>
<path d="m1512 63.33h-1512" stroke="#343839" stroke-linecap="round" stroke-linejoin="round" stroke-width=".55747"/>
<path d="m1512 1.1149h-1512" stroke="#343839" stroke-linecap="round" stroke-linejoin="round" stroke-width=".55747"/>
<path d="m1512 119.25h-1512" stroke="#343839" stroke-linecap="round" stroke-linejoin="round" stroke-width=".55747"/>
<path d="m1512 145.14h-1512" stroke="#343839" stroke-linecap="round" stroke-linejoin="round" stroke-width=".55747"/>
<path d="m1512 331.12h-1512" stroke="#343839" stroke-linecap="round" stroke-linejoin="round" stroke-width=".55747"/>
<path d="m1512 176.61h-1512" stroke="#343839" stroke-linecap="round" stroke-linejoin="round" stroke-width=".55747"/>
<path d="m1512 215.68h-1512" stroke="#343839" stroke-linecap="round" stroke-linejoin="round" stroke-width=".55747"/>
<path d="m1512 265.48h-1512" stroke="#343839" stroke-linecap="round" stroke-linejoin="round" stroke-width=".55747"/>
</svg>
